dist/img/email.svg

<svg width="18" height="18" viewBox="0 0 18 18" fill="none" xmlns="http://www.w3.org/2000/svg">
<path d="M8.4375 1.125C4.40332 1.125 1.125 4.40332 1.125 8.4375C1.125 12.4717 4.40332 15.75 8.4375 15.75C9.80859 15.75 11.0962 15.3721 12.1948 14.7129L11.6147 13.7461C10.6875 14.3042 9.60205 14.625 8.4375 14.625C5.01416 14.625 2.25 11.8608 2.25 8.4375C2.25 5.01416 5.01416 2.25 8.4375 2.25C11.8608 2.25 14.625 5.01416 14.625 8.4375V9.67676C14.625 10.5469 13.9219 11.25 13.0562 11.25H12.8232C11.9575 11.25 11.25 10.5469 11.25 9.67676V7.19824C11.25 5.71728 10.0327 4.5 8.55176 4.5H8.32324C6.84228 4.5 5.625 5.71728 5.625 7.19824V9.67676C5.625 11.1577 6.84228 12.375 8.32324 12.375H8.55176C9.42188 12.375 10.1953 11.9487 10.6875 11.3027C11.1841 11.9487 11.9531 12.375 12.8232 12.375H13.0562C14.5327 12.375 15.75 11.1621 15.75 9.67676V8.4375C15.75 4.40332 12.4717 1.125 8.4375 1.125ZM8.32324 5.625H8.55176C9.41748 5.625 10.125 6.32812 10.125 7.19824V9.67676C10.125 10.5469 9.41748 11.25 8.55176 11.25H8.32324C7.45312 11.25 6.75 10.5469 6.75 9.67676V7.19824C6.75 6.32812 7.45312 5.625 8.32324 5.625Z" fill="#E12025"/>
</svg>

<svg xmlns="http://www.w3.org/2000/svg" fill="none" viewBox="0 0 18 18"><path fill="#E12025" d="M8.438 1.125a7.318 7.318 0 00-7.313 7.313 7.318 7.318 0 0011.07 6.275l-.58-.967a6.136 6.136 0 01-3.178.879A6.18 6.18 0 012.25 8.437 6.18 6.18 0 018.438 2.25a6.18 6.18 0 016.187 6.188v1.239a1.57 1.57 0 01-1.569 1.573h-.233a1.574 1.574 0 01-1.573-1.573V7.198A2.71 2.71 0 008.552 4.5h-.229a2.71 2.71 0 00-2.698 2.698v2.479a2.71 2.71 0 002.698 2.698h.229c.87 0 1.643-.426 2.136-1.072a2.695 2.695 0 002.135 1.072h.233a2.706 2.706 0 002.694-2.698v-1.24a7.318 7.318 0 00-7.313-7.312zm-.115 4.5h.229c.865 0 1.573.703 1.573 1.573v2.479c0 .87-.708 1.573-1.573 1.573h-.229c-.87 0-1.573-.703-1.573-1.573V7.198c0-.87.703-1.573 1.573-1.573z"/></svg>
